X: 41228
T: Trotto
R: jig
M: 6/8
K: Gmajor
A2A|eAe e2d|cBc AGA|BAB G3|
[1A2B cBA|B2F B3|z3:|2 A2B d2e|d2c B/A/BG|A3|
|:d/c/Bc d2e|d/c/Bc AGA|d/c/Bc d2e|
d/c/Bc A2A|eAe e2d|cBc AGA|BAB G3|
[1A2B cBA|B2F B3:|2 A2B d2e|d2c B/A/BG|A3|
|:a2g/f/ e2f/g/|a2g/f/ e3|a2g f3|
a/g/fg e3|eAe e2d|cBc AGA|BAB G3|
[1A2B cBA|B2F B3:|2 A2B d2e|d2c B/A/BG|A3||

